svg/fluentui-system-icons/ic_fluent_building_24_regular.svg

<svg width="24" height="24" viewBox="0 0 24 24" fill="none" xmlns="http://www.w3.org/2000/svg">
<path d="M6.25 3.5C5.83579 3.5 5.5 3.83579 5.5 4.25V20.5H7.5V17.75C7.5 17.0596 8.05964 16.5 8.75 16.5H15.25C15.9404 16.5 16.5 17.0596 16.5 17.75V20.5H18.5V11.75C18.5 11.3358 18.1642 11 17.75 11H15.75C15.3358 11 15 10.6642 15 10.25V4.25C15 3.83579 14.6642 3.5 14.25 3.5H6.25ZM9 18V20.5H11.25V18H9ZM12.75 18V20.5H15V18H12.75ZM19.25 22H4.75C4.33579 22 4 21.6642 4 21.25V4.25C4 3.00736 5.00736 2 6.25 2H14.25C15.4926 2 16.5 3.00736 16.5 4.25V9.5H17.75C18.9926 9.5 20 10.5074 20 11.75V21.25C20 21.6642 19.6642 22 19.25 22ZM7.5 6.5C7.5 5.94772 7.94772 5.5 8.5 5.5C9.05229 5.5 9.5 5.94772 9.5 6.5C9.5 7.05228 9.05229 7.5 8.5 7.5C7.94772 7.5 7.5 7.05228 7.5 6.5ZM8.5 12.5C7.94772 12.5 7.5 12.9477 7.5 13.5C7.5 14.0523 7.94772 14.5 8.5 14.5C9.05229 14.5 9.5 14.0523 9.5 13.5C9.5 12.9477 9.05229 12.5 8.5 12.5ZM8.5 9C7.94772 9 7.5 9.44771 7.5 10C7.5 10.5523 7.94772 11 8.5 11C9.05229 11 9.5 10.5523 9.5 10C9.5 9.44771 9.05229 9 8.5 9ZM12 5.5C11.4477 5.5 11 5.94772 11 6.5C11 7.05228 11.4477 7.5 12 7.5C12.5523 7.5 13 7.05228 13 6.5C13 5.94772 12.5523 5.5 12 5.5ZM12 12.5C11.4477 12.5 11 12.9477 11 13.5C11 14.0523 11.4477 14.5 12 14.5C12.5523 14.5 13 14.0523 13 13.5C13 12.9477 12.5523 12.5 12 12.5ZM15.5 12.5C14.9477 12.5 14.5 12.9477 14.5 13.5C14.5 14.0523 14.9477 14.5 15.5 14.5C16.0523 14.5 16.5 14.0523 16.5 13.5C16.5 12.9477 16.0523 12.5 15.5 12.5ZM12 9C11.4477 9 11 9.44771 11 10C11 10.5523 11.4477 11 12 11C12.5523 11 13 10.5523 13 10C13 9.44771 12.5523 9 12 9Z" fill="#212121"/>
</svg>

<svg xmlns="http://www.w3.org/2000/svg" width="24" height="24"><path d="M6.25 3.5a.75.75 0 0 0-.75.75V20.5h2v-2.75c0-.69.56-1.25 1.25-1.25h6.5c.69 0 1.25.56 1.25 1.25v2.75h2v-8.75a.75.75 0 0 0-.75-.75h-2a.75.75 0 0 1-.75-.75v-6a.75.75 0 0 0-.75-.75h-8ZM9 18v2.5h2.25V18H9Zm3.75 0v2.5H15V18h-2.25Zm6.5 4H4.75a.75.75 0 0 1-.75-.75v-17A2.25 2.25 0 0 1 6.25 2h8a2.25 2.25 0 0 1 2.25 2.25V9.5h1.25A2.25 2.25 0 0 1 20 11.75v9.5a.75.75 0 0 1-.75.75ZM7.5 6.5a1 1 0 1 1 2 0 1 1 0 0 1-2 0Zm1 6a1 1 0 1 0 0 2 1 1 0 0 0 0-2Zm0-3.5a1 1 0 1 0 0 2 1 1 0 0 0 0-2ZM12 5.5a1 1 0 1 0 0 2 1 1 0 0 0 0-2Zm0 7a1 1 0 1 0 0 2 1 1 0 0 0 0-2Zm3.5 0a1 1 0 1 0 0 2 1 1 0 0 0 0-2ZM12 9a1 1 0 1 0 0 2 1 1 0 0 0 0-2Z"/></svg>
